!!!SOCIAL_FUNCTION: man chief's songs
!!!PDT:	1929
!!!LING_GROUP: Caddoan
!!!LANG: Non-Tone
!!!REG: Oklahoma
!!!COM: Anon.
!!!OTL: Man Chief's Song
!!!ODT: <1920//
!!!MPN: Laduda desadu [He does everything as a chief, John Luwak]
!!!MLC: Pawnee, Oklahoma, United States of America
!! Song was recorded either 1919 or 1920.
!!!AGN: monody
!!!AMT: irregular
!!!RWG: Transcribed pitches, durations, and meters are only approximate.
!! Drum Tempo:  MM63
!! Drum-rhythm: (8 8 8 8 8 8)
**kern	**recip
*ICvox	*ICidio
*Imale	*Itom
*clefF4	*
*k[b-e-a-]	*
*MM63	*MM63
*[A,B,B]	*[A,B,B]
*>A	*>A
*M2/4	*M2/4
8g	8
=1	=1
8.g	8
.	8
(16g	.
4f)	8
.	8
*M3/4	*M3/4
=2	=2
16g	8
16d	.
8d	8
8.d	8
.	8
16d	.
8.d	8
.	8
*>B	*>B
16f	.
*M2/4	*M2/4
=3	=3
8.e-	8
.	8
16f	.
4e-	8
.	8
*M3/4	*M3/4
=4	=4
16e-	8
16G	.
8G	8
8.G	8
.	8
16G	.
8.G	8
.	8
16d	.
=5	=5
8.c	8
.	8
16G	.
8.G	8
.	8
16G	.
8.G	8
.	8
16c	.
*M2/4	*M2/4
=6	=6
8.G	8
.	8
16G	.
4G	8
.	8
=7	=7
2G	8
.	8
.	8
.	8
=8	=8
4.G	8
.	8
.	8
==:|!	==:|!
*-	*-
!!!HAO:    The final song belonging to Man Chief is similar to those already
!!!HAO: presented, though the words are not translated.
!!!HTX: [no free translation]
!!!CNT: Pawnee
!!!TXO: Pawnee
!!!OCY: United States
!!!OCL: Frances Densmore
!!!YOR: Frances Densmore, "Pawnee Music"
!!!YOR: Bulletin 93, page 91, No. 65
!!!PPR: Smithsonian Institution, Bureau of American Ethnology
!!!PPR: Government Printing Office
!!!PDT: 1926
!!!PPP: Washington, DC, United States of America
!!!YEC: Electronic Copyright 2000 David Huron
!!!YER: September 2000
!!!YEN: United States of America
!!!ENC: David Huron
!!!RDT: September 6, 2000
!!!EEV: Release 1.0
!!!AIN: tom, vox
